assets/Woman bouncing ball/Dark/Flat/woman_bouncing_ball_flat_dark.svg

<svg width="32" height="32" viewBox="0 0 32 32" fill="none" xmlns="http://www.w3.org/2000/svg">
<path d="M17.9201 6.26994C17.9201 6.49994 17.8601 6.71994 17.7701 6.91994C17.7401 6.98994 17.7401 7.05994 17.7801 7.12994C17.8801 7.31994 17.9301 7.53994 17.9301 7.76994C17.9301 8.57994 17.2801 9.22994 16.4701 9.22994H12.5801C11.7701 9.22994 11.1201 8.57994 11.1201 7.76994C11.1201 7.53994 11.1801 7.31994 11.2701 7.12994C11.3001 7.05994 11.3001 6.98994 11.2701 6.91994C11.1701 6.71994 11.1201 6.49994 11.1201 6.26994C11.1201 5.96994 11.2101 5.68994 11.3701 5.44994C11.5301 5.20994 11.6101 4.93994 11.6101 4.64994C11.6101 3.82994 12.2801 3.15994 13.1001 3.15994C13.1901 3.15994 13.2601 3.12994 13.3101 3.05994C13.5801 2.68994 14.0201 2.43994 14.5201 2.43994C15.0201 2.43994 15.4601 2.67994 15.7301 3.05994C15.7801 3.11994 15.8601 3.15994 15.9401 3.15994C16.7601 3.15994 17.4301 3.82994 17.4301 4.64994C17.4301 4.92994 17.5101 5.20994 17.6701 5.44994C17.8301 5.67994 17.9201 5.96994 17.9201 6.26994Z" fill="black"/>
<path d="M11.4 29.5801C10.92 30.3501 10.24 29.82 10.24 29.82L6.29995 27.39C6.17995 27.32 6.14995 27.16 6.22995 27.05C6.35995 26.87 6.54995 26.7601 6.76995 26.7401H6.80995C7.19995 26.7001 7.58995 26.7201 7.96995 26.7901L9.09995 27C9.39995 27.0601 9.69995 26.9801 9.92995 26.7901C10.19 26.5701 10.39 26.2801 10.5 25.9501L11.55 22.7901C11.77 22.1501 12.11 21.55 12.57 21.05L14.27 19.17C14.69 18.7 14.91 18.0801 14.86 17.4501L14.83 17.05L15.75 17.2001C16.75 17.3601 17.75 17.3701 18.75 17.2401L20.17 17.05L20.22 17.7201C20.2371 17.9652 20.2184 18.2136 20.164 18.4559L21.49 19.97C21.63 20.14 21.87 20.18 22.06 20.08C22.06 20.08 26.93 17.4 27.25 17.27C28.07 16.94 28.3 17.75 28.3 17.75L29.97 21.95C30.02 22.07 29.95 22.22 29.84 22.26C29.64 22.33 29.42 22.3 29.24 22.19L29.2 22.17C28.87 21.97 28.58 21.73 28.32 21.45L27.56 20.62C27.36 20.4 27.07 20.28 26.78 20.3C26.53 20.32 26.28 20.38 26.05 20.5C26.04 20.5 26.04 20.49 26.04 20.49L21.5 22.92C20.98 23.2 20.35 23.18 19.85 22.87C19.38 22.59 18.98 22.21 18.67 21.76L17.97 20.76L17.9801 20.7485L14.74 22.8C14.28 23.09 13.93 23.52 13.73 24.03C13.12 25.59 11.76 28.9901 11.4 29.5801Z" fill="#452829"/>
<path d="M10.2261 26.4746L12.3451 27.4732C12.675 26.6794 13.0321 25.7933 13.3322 25.0383L11.1388 24.0272L10.4999 25.95C10.4366 26.14 10.3434 26.3168 10.2261 26.4746Z" fill="#D3D3D3"/>
<path d="M26.2408 20.4153L25.2567 18.3306C24.6598 18.655 24.019 19.0053 23.469 19.3066L24.4428 21.3449L26.0399 20.49C26.0399 20.49 26.0399 20.5 26.0499 20.5C26.1122 20.4675 26.176 20.4394 26.2408 20.4153Z" fill="#D3D3D3"/>
<path d="M25.92 20.76L25.9 20.77C25.76 20.82 25.62 20.76 25.6 20.63C25.58 20.59 25.58 20.54 25.59 20.49C25.6126 20.4166 25.6096 20.2221 25.6064 20.0072C25.6039 19.8415 25.6013 19.6637 25.61 19.52C25.62 19.35 25.44 19.22 25.28 19.29H25.27C25.05 19.38 24.8 19.27 24.71 19.05V19.04C24.57 18.71 24.73 18.33 25.06 18.2L27.44 16.85C27.63 16.77 28.12 16.75 28.2 16.94L30.2 21.86C30.28 22.07 30.17 22.3 29.96 22.36L29.26 22.55C29.11 22.59 28.95 22.53 28.87 22.4L28.31 21.57C28.05 21.19 27.68 20.91 27.24 20.78L26.85 20.66C26.68 20.61 26.5 20.59 26.33 20.62C26.2147 20.6377 26.1152 20.679 25.9756 20.737C25.9578 20.7444 25.9393 20.752 25.92 20.76Z" fill="#8B62BF"/>
<path d="M10.3301 25.9499L10.3401 25.9399C10.4201 25.8199 10.5701 25.7899 10.6901 25.8499C10.7301 25.8699 10.7601 25.9099 10.7801 25.9599C10.8067 26.0238 10.9127 26.1642 11.0331 26.3237C11.1389 26.464 11.2559 26.619 11.3401 26.7499C11.4301 26.8899 11.6501 26.8899 11.7401 26.7399L11.7501 26.7299C11.8701 26.5299 12.1401 26.4699 12.3401 26.5899L12.3501 26.5999C12.6501 26.7899 12.7501 27.1899 12.5601 27.4899L11.4301 29.9899C11.3201 30.1699 10.9401 30.4799 10.7601 30.3699L6.24011 27.5899C6.06011 27.4799 6.01011 27.2299 6.14011 27.0499L6.59011 26.4799C6.69011 26.3599 6.85011 26.3199 6.99011 26.3699L7.93011 26.7099C8.36011 26.8699 8.83011 26.8699 9.26011 26.7199L9.64011 26.5899C9.81011 26.5299 9.96011 26.4399 10.0801 26.3099C10.163 26.2179 10.2204 26.1258 10.3071 25.9868C10.3145 25.9749 10.3222 25.9626 10.3301 25.9499Z" fill="#8B62BF"/>
<path d="M6.31011 26.84L6.14011 27.05C6.01011 27.23 6.06011 27.48 6.24011 27.59L10.7601 30.37C10.9401 30.48 11.1701 30.42 11.2701 30.25L11.4301 29.99L6.31011 26.84Z" fill="#D3D3D3"/>
<path d="M29.7126 22.431L29.9726 22.361C30.1826 22.301 30.2926 22.071 30.2126 21.861L28.2126 16.941C28.1326 16.751 27.9126 16.661 27.7226 16.741L27.4426 16.851L29.7126 22.431Z" fill="#D3D3D3"/>
<path d="M6.5 22C7.88071 22 9 20.8807 9 19.5C9 18.1193 7.88071 17 6.5 17C5.11929 17 4 18.1193 4 19.5C4 20.8807 5.11929 22 6.5 22Z" fill="#FF6723"/>
<path d="M8.99878 19.5787C8.99959 19.5526 9 19.5263 9 19.5C9 19.4466 8.99832 19.3935 8.99502 19.341C8.44765 19.3177 7.90613 19.1107 7.46991 18.7199L8.36015 17.8297C8.30655 17.77 8.25013 17.713 8.19109 17.6587L7.28991 18.5599C6.88481 18.118 6.67255 17.5637 6.65119 17.0045C6.60117 17.0015 6.55076 17 6.5 17C6.47331 17 6.44671 17.0004 6.42022 17.0012C6.44369 17.6206 6.68059 18.2335 7.12991 18.7199L6.50991 19.3399L4.81927 17.6493C4.75992 17.7032 4.70319 17.7599 4.64926 17.8193L6.33991 19.5099L5.71991 20.1299C5.23353 19.6806 4.62056 19.4437 4.00125 19.4202C4.00042 19.4467 4 19.4733 4 19.5C4 19.553 4.00165 19.6057 4.0049 19.6579C4.56278 19.6812 5.11336 19.8955 5.54991 20.2999L4.65873 21.1911C4.71298 21.2501 4.77003 21.3065 4.82968 21.3601L5.70991 20.4799C6.10482 20.9111 6.31429 21.4495 6.33926 21.9949C6.39241 21.9983 6.446 22 6.5 22C6.52635 22 6.5526 21.9996 6.57875 21.9988C6.55616 21.3876 6.32655 20.7825 5.88991 20.2999L6.50991 19.6799L8.18073 21.3507C8.24007 21.2968 8.29681 21.2401 8.35073 21.1807L6.67991 19.5099L7.29991 18.8899C7.78251 19.3265 8.38764 19.5562 8.99878 19.5787Z" fill="black"/>
<path d="M23.6899 14.55L23.6399 11.08C23.6299 10.59 23.3499 10.14 22.9099 9.92997L22.1099 9.52998C20.9499 8.95998 19.7199 8.54997 18.4499 8.32997C17.3599 8.13997 16.2499 8.09998 15.1599 8.19998C14.6399 8.24998 14.1699 8.50997 13.8499 8.91997C13.2899 9.64997 13.0599 10.57 13.1999 11.47L13.3099 12.17C13.4599 13.16 13.7199 14.14 14.0799 15.07L14.8399 17.04L17.6699 18L20.1699 17.04L19.5799 14.89L18.2199 11.29C18.1499 11.1 18.2899 10.89 18.4899 10.89H18.6699C19.5099 10.88 20.3399 11.01 21.1399 11.28L21.3899 11.37C21.5599 11.43 21.6699 11.58 21.6899 11.75L21.8999 14.27C21.9099 14.45 21.8599 14.63 21.7399 14.76C21.6299 14.88 21.5799 15.03 21.5799 15.2V15.54C21.5799 16.04 21.9799 16.44 22.4799 16.44H22.8199C23.3199 16.44 23.7199 16.04 23.7199 15.54C23.6899 15.05 23.6899 14.55 23.6899 14.55Z" fill="#452829"/>
<path d="M21.6099 11.86L21.6399 12.18C21.6399 12.22 21.6799 12.25 21.7199 12.25C22.1799 12.22 23.2199 12.16 23.7399 12.14C23.7799 12.14 23.8099 12.1 23.8099 12.06L23.7999 11.11C23.7899 10.56 23.4799 10.07 22.9899 9.81996L22.0999 9.37996C22.0499 9.34996 21.9899 9.32996 21.9399 9.29996C21.8999 9.27996 21.8499 9.29996 21.8299 9.33996L21.0399 11.25C21.0199 11.29 21.0399 11.34 21.0899 11.36L21.2799 11.43C21.4599 11.5 21.5899 11.66 21.6099 11.86Z" fill="#D3D3D3"/>
<path d="M17.8999 20.86C17.8999 20.88 18.0299 21.1 18.1899 21.37C18.5799 22.02 19.1099 22.59 19.7399 23.02L20.1799 23.33C20.3299 23.43 20.5399 23.39 20.6299 23.24L20.7599 23.03C21.2699 22.22 21.5899 21.31 21.6999 20.37L21.7299 20.12C21.7499 19.98 21.7099 19.84 21.6199 19.72L21.5399 19.61C21.1999 19.16 20.0399 17.41 20.0399 17.41L17.8999 20.86Z" fill="#636363"/>
<path d="M14.9201 17.06L16.1801 17.28C17.0601 17.44 17.9601 17.43 18.8401 17.28L19.9701 17.08C20.0701 17.06 20.1601 17.14 20.1701 17.24C20.2901 17.68 20.3201 18.14 20.2201 18.58C20.1501 18.89 20.0401 19.19 19.8901 19.47C19.6301 19.95 19.2501 20.36 18.7901 20.66L15.5401 22.66C15.3801 22.76 15.1701 22.76 15.0201 22.64L14.6401 22.35C13.9401 21.82 13.3701 21.15 12.9701 20.37C12.8801 20.19 12.9101 19.98 13.0501 19.84L13.7101 19.19C14.1201 18.78 14.4301 18.28 14.6101 17.72L14.8001 17.13C14.8201 17.08 14.8701 17.05 14.9201 17.06Z" fill="#9B9B9B"/>
<path d="M13.3801 9.75L13.6901 13.25L11.9001 14.94C11.7801 15.05 11.6601 15.15 11.5301 15.24L11.4901 15.27C11.2101 15.46 10.9001 15.61 10.5701 15.7C10.3501 15.76 10.1301 15.8 9.91011 15.81L8.57011 15.9C8.47011 15.91 8.37011 15.95 8.30011 16.02L7.67011 16.62C7.60011 16.68 7.51011 16.72 7.42011 16.72C7.18011 16.72 7.01011 16.5 7.06011 16.26C7.10011 16.11 6.98011 15.96 6.82011 15.96H6.74011C6.71011 15.96 6.68011 15.97 6.65011 15.98L5.57011 16.47C5.32011 16.58 5.03011 16.42 5.01011 16.14C5.00011 16 5.06011 15.86 5.18011 15.77L5.61011 15.48C6.21011 15.07 6.87011 14.76 7.58011 14.57L9.92011 13.93C10.2801 13.83 10.5901 13.62 10.8101 13.32L13.3801 9.75Z" fill="#573739"/>
<path d="M14.64 17.23C14.7 17.24 14.78 17.26 14.86 17.27C16.5 17.58 18.32 17.58 19.96 17.28L20.09 17.26C20.31 17.22 20.44 17 20.38 16.79L19.33 13.81L18.51 11.67C18.46 11.54 18.32 11.47 18.18 11.51L17.92 11.59C17.88 11.6 17.84 11.61 17.8 11.62C17.15 11.71 16.61 11.13 16.71 10.49C16.77 10.09 16.88 9.69999 16.94 9.56999L17.47 8.27999C17.5 8.19999 17.44 8.12 17.36 8.12H16.45C16.41 8.12 16.37 8.13999 16.34 8.17999L15.94 9.06999C15.72 9.55999 15.24 9.86999 14.71 9.87999C14.36 9.87999 14.01 9.74999 13.75 9.50999L13.57 9.33999C13.4 9.65999 13.3 9.99999 13.27 10.36C13.21 11.33 13.3 12.88 13.71 14.75L14.34 16.97C14.39 17.1 14.5 17.2 14.64 17.23Z" fill="#8B62BF"/>
<path d="M16.28 4.85H14.84C14.27 4.85 13.74 4.57 13.41 4.1C13.36 4.02 13.24 4.04 13.2 4.12L13.17 4.2C13.07 4.45 12.87 4.65 12.64 4.75C12.62 4.76 12.61 4.76 12.59 4.77C12.48 4.82 12.24 4.99 12.23 5.42L12.29 6.85C12.34 8.12 13.32 8.97 14.51 8.97C15.7 8.97 16.68 8.12 16.73 6.85L16.79 5.49C16.79 4.89 16.37 4.85 16.28 4.85Z" fill="#573739"/>
<path d="M14.5201 7.61995C14.2801 7.61995 14.0601 7.55995 13.8801 7.46995C13.8201 7.43995 13.7501 7.50995 13.7901 7.56995C13.9501 7.80995 14.2201 7.96995 14.5201 7.96995C14.8201 7.96995 15.1001 7.80995 15.2501 7.56995C15.2901 7.50995 15.2201 7.43995 15.1601 7.46995C14.9701 7.55995 14.7501 7.61995 14.5201 7.61995Z" fill="#290118"/>
<path d="M14.3499 6.15003L14.1199 6.89003C14.0699 7.04003 14.1899 7.20003 14.3499 7.20003H14.6899C14.8499 7.20003 14.9599 7.05003 14.9199 6.89003L14.6899 6.15003C14.6299 5.99003 14.3999 5.99003 14.3499 6.15003Z" fill="#3D2123"/>
<path d="M13.34 5.68994C13.59 5.68994 13.8 5.85994 13.93 6.05994C13.8077 6.09939 13.6885 6.13418 13.5706 6.16859C13.3896 6.2214 13.2116 6.27334 13.03 6.33994L12.81 6.13994C12.72 6.05994 12.73 5.91994 12.83 5.84994C12.97 5.74994 13.16 5.68994 13.34 5.68994Z" fill="black"/>
<path d="M15.7001 5.68994C15.4501 5.68994 15.2401 5.85994 15.1101 6.05994C15.2324 6.09939 15.3516 6.13418 15.4695 6.16859C15.6505 6.2214 15.8285 6.27334 16.0101 6.33994L16.2301 6.13994C16.3201 6.05994 16.3101 5.91994 16.2101 5.84994C16.0701 5.74994 15.8801 5.68994 15.7001 5.68994Z" fill="black"/>
<path d="M12.81 6.20998C12.88 5.92998 13.12 5.72998 13.42 5.72998C13.72 5.72998 13.98 5.94998 14.04 6.23998C14.06 6.29998 14 6.35998 13.94 6.35998H12.93C12.85 6.35998 12.79 6.28998 12.81 6.20998Z" fill="white"/>
<path d="M16.24 6.20998C16.17 5.92998 15.93 5.72998 15.63 5.72998C15.32 5.72998 15.06 5.94998 15.01 6.23998C14.99 6.29998 15.05 6.35998 15.11 6.35998H16.12C16.2 6.35998 16.26 6.28998 16.24 6.20998Z" fill="white"/>
<path d="M13.1296 6.24998C13.1296 6.02998 13.3096 5.84998 13.5296 5.84998C13.7496 5.84998 13.9396 6.02998 13.9296 6.24998C13.9296 6.28997 13.9296 6.32998 13.9196 6.35998H13.1396C13.1396 6.33998 13.1371 6.32248 13.1346 6.30498C13.1321 6.28748 13.1296 6.26998 13.1296 6.24998Z" fill="#7D4533"/>
<path d="M15.9301 6.24998C15.9301 6.02998 15.7501 5.84998 15.5301 5.84998C15.3101 5.84998 15.1301 6.02998 15.1301 6.24998C15.1301 6.28997 15.1301 6.32998 15.1401 6.35998H15.9201C15.9201 6.33998 15.9226 6.32248 15.9251 6.30498C15.9276 6.28748 15.9301 6.26998 15.9301 6.24998Z" fill="#7D4533"/>
<path d="M13.51 6.01489C13.64 6.01489 13.74 6.11489 13.74 6.24489C13.74 6.27489 13.73 6.31489 13.72 6.35489L13.31 6.35489C13.29 6.32489 13.28 6.28489 13.28 6.24489C13.28 6.11489 13.38 6.01489 13.51 6.01489Z" fill="black"/>
<path d="M15.53 6.01489C15.4 6.01489 15.3 6.11489 15.3 6.24489C15.3 6.27489 15.31 6.31489 15.32 6.35489L15.73 6.35489C15.75 6.32489 15.76 6.28489 15.76 6.24489C15.76 6.11489 15.66 6.01489 15.53 6.01489Z" fill="black"/>
<path d="M13.44 6.10003C13.44 6.13869 13.4087 6.17003 13.37 6.17003C13.3314 6.17003 13.3 6.13869 13.3 6.10003C13.3 6.06137 13.3314 6.03003 13.37 6.03003C13.4087 6.03003 13.44 6.06137 13.44 6.10003Z" fill="white"/>
<path d="M15.4701 6.10003C15.4701 6.13869 15.4387 6.17003 15.4001 6.17003C15.3614 6.17003 15.3301 6.13869 15.3301 6.10003C15.3301 6.06137 15.3614 6.03003 15.4001 6.03003C15.4387 6.03003 15.4701 6.06137 15.4701 6.10003Z" fill="white"/>
<path d="M12.8 5.39998C12.83 5.43998 12.87 5.45998 12.91 5.45998C12.93 5.45998 12.96 5.44998 12.96 5.43998C12.96 5.43998 12.9673 5.4371 12.9777 5.43219C13.0517 5.39715 13.3443 5.25859 13.66 5.31998C13.72 5.32998 13.79 5.28998 13.8 5.21998C13.81 5.15998 13.77 5.08998 13.7 5.07998C13.2685 5.00326 12.8921 5.20242 12.8443 5.22772C12.8423 5.2288 12.84 5.22998 12.84 5.22998C12.79 5.26998 12.77 5.33998 12.8 5.39998Z" fill="black"/>
<path d="M16.06 5.43998C16.08 5.44998 16.1 5.45998 16.12 5.45998C16.16 5.45998 16.2 5.42998 16.22 5.39998C16.26 5.33998 16.24 5.25998 16.18 5.22998C16.18 5.22998 16.1778 5.2288 16.1757 5.22772C16.1279 5.20242 15.7515 5.00326 15.32 5.07998C15.25 5.08998 15.21 5.14998 15.22 5.21998C15.23 5.28998 15.3 5.32998 15.36 5.31998C15.73 5.24998 16.06 5.43998 16.06 5.43998Z" fill="black"/>
<path d="M13.3568 3.97998C13.5839 4.31184 13.8423 4.60747 14.2631 4.74998H12.3799C12.2499 4.74998 12.1399 4.63998 12.1399 4.50998V4.21998C12.1399 4.08998 12.2499 3.97998 12.3799 3.97998H13.3568Z" fill="#D3D3D3"/>
</svg>

<svg xmlns="http://www.w3.org/2000/svg" width="32" height="32" fill="none"><path fill="#000" d="M17.92 6.27c0 .23-.06.45-.15.65-.03.07-.03.14.01.21.1.19.15.41.15.64 0 .81-.65 1.46-1.46 1.46h-3.89a1.455 1.455 0 0 1-1.31-2.1c.03-.07.03-.14 0-.21a1.468 1.468 0 0 1 .1-1.47c.16-.24.24-.51.24-.8 0-.82.67-1.49 1.49-1.49.09 0 .16-.03.21-.1a1.5 1.5 0 0 1 1.21-.62c.5 0 .94.24 1.21.62.05.06.13.1.21.1.82 0 1.49.67 1.49 1.49 0 .28.08.56.24.8.16.23.25.52.25.82Z"/><path fill="#452829" d="M11.4 29.58c-.48.77-1.16.24-1.16.24L6.3 27.39a.235.235 0 0 1-.07-.34c.13-.18.32-.29.54-.31h.04c.39-.04.78-.02 1.16.05L9.1 27c.3.06.6-.02.83-.21.26-.22.46-.51.57-.84l1.05-3.16c.22-.64.56-1.24 1.02-1.74l1.7-1.88c.42-.47.64-1.09.59-1.72l-.03-.4.92.15c1 .16 2 .17 3 .04l1.42-.19.05.67c.017.245-.002.494-.056.736l1.326 1.514c.14.17.38.21.57.11 0 0 4.87-2.68 5.19-2.81.82-.33 1.05.48 1.05.48l1.67 4.2c.05.12-.02.27-.13.31-.2.07-.42.04-.6-.07l-.04-.02c-.33-.2-.62-.44-.88-.72l-.76-.83a.973.973 0 0 0-.78-.32c-.25.02-.5.08-.73.2-.01 0-.01-.01-.01-.01l-4.54 2.43c-.52.28-1.15.26-1.65-.05-.47-.28-.87-.66-1.18-1.11l-.7-1 .01-.012-3.24 2.052c-.46.29-.81.72-1.01 1.23-.61 1.56-1.97 4.96-2.33 5.55Z"/><path fill="#D3D3D3" d="m10.226 26.475 2.12.998c.329-.794.686-1.68.986-2.435l-2.193-1.01-.64 1.922c-.062.19-.156.367-.273.525ZM26.24 20.415l-.983-2.084c-.597.324-1.238.674-1.788.976l.974 2.038 1.597-.855s0 .01.01.01c.062-.032.126-.06.19-.085Z"/><path fill="#8B62BF" d="m25.92 20.76-.02.01c-.14.05-.28-.01-.3-.14a.22.22 0 0 1-.01-.14c.023-.073.02-.268.016-.483a6.958 6.958 0 0 1 .004-.487c.01-.17-.17-.3-.33-.23h-.01a.431.431 0 0 1-.56-.24v-.01c-.14-.33.02-.71.35-.84l2.38-1.35c.19-.08.68-.1.76.09l2 4.92c.08.21-.03.44-.24.5l-.7.19a.351.351 0 0 1-.39-.15l-.56-.83c-.26-.38-.63-.66-1.07-.79l-.39-.12c-.17-.05-.35-.07-.52-.04a1.513 1.513 0 0 0-.354.117l-.056.023ZM10.33 25.95l.01-.01a.27.27 0 0 1 .35-.09c.04.02.07.06.09.11.027.064.133.204.253.364.106.14.223.295.307.426.09.14.31.14.4-.01l.01-.01c.12-.2.39-.26.59-.14l.01.01c.3.19.4.59.21.89l-1.13 2.5c-.11.18-.49.49-.67.38l-4.52-2.78a.376.376 0 0 1-.1-.54l.45-.57c.1-.12.26-.16.4-.11l.94.34c.43.16.9.16 1.33.01l.38-.13c.17-.06.32-.15.44-.28.083-.092.14-.184.227-.323l.023-.037Z"/><path fill="#D3D3D3" d="m6.31 26.84-.17.21c-.13.18-.08.43.1.54l4.52 2.78c.18.11.41.05.51-.12l.16-.26-5.12-3.15ZM29.713 22.431l.26-.07c.21-.06.32-.29.24-.5l-2-4.92a.375.375 0 0 0-.49-.2l-.28.11 2.27 5.58Z"/><path fill="#FF6723" d="M6.5 22a2.5 2.5 0 1 0 0-5 2.5 2.5 0 0 0 0 5Z"/><path fill="#000" d="M8.999 19.579a2.54 2.54 0 0 0-.004-.238 2.436 2.436 0 0 1-1.525-.621l.89-.89a2.516 2.516 0 0 0-.169-.171l-.901.9a2.433 2.433 0 0 1-.639-1.555 2.525 2.525 0 0 0-.23-.003c.023.62.26 1.232.709 1.719l-.62.62-1.69-1.69c-.06.053-.117.11-.17.17l1.69 1.69-.62.62A2.677 2.677 0 0 0 4 19.42a2.549 2.549 0 0 0 .004.238 2.416 2.416 0 0 1 1.545.642l-.891.891c.054.06.111.116.17.17l.88-.881a2.4 2.4 0 0 1 .63 1.515 2.518 2.518 0 0 0 .24.004 2.673 2.673 0 0 0-.69-1.7l.62-.62 1.672 1.672c.06-.054.116-.11.17-.17L6.68 19.51l.62-.62a2.673 2.673 0 0 0 1.699.689Z"/><path fill="#452829" d="m23.69 14.55-.05-3.47c-.01-.49-.29-.94-.73-1.15l-.8-.4c-1.16-.57-2.39-.98-3.66-1.2-1.09-.19-2.2-.23-3.29-.13-.52.05-.99.31-1.31.72a3.34 3.34 0 0 0-.65 2.55l.11.7c.15.99.41 1.97.77 2.9l.76 1.97 2.83.96 2.5-.96-.59-2.15-1.36-3.6c-.07-.19.07-.4.27-.4h.18c.84-.01 1.67.12 2.47.39l.25.09c.17.06.28.21.3.38l.21 2.52c.01.18-.04.36-.16.49-.11.12-.16.27-.16.44v.34c0 .5.4.9.9.9h.34c.5 0 .9-.4.9-.9-.03-.49-.03-.99-.03-.99Z"/><path fill="#D3D3D3" d="m21.61 11.86.03.32c0 .04.04.07.08.07.46-.03 1.5-.09 2.02-.11.04 0 .07-.04.07-.08l-.01-.95c-.01-.55-.32-1.04-.81-1.29l-.89-.44c-.05-.03-.11-.05-.16-.08-.04-.02-.09 0-.11.04l-.79 1.91c-.02.04 0 .09.05.11l.19.07c.18.07.31.23.33.43Z"/><path fill="#636363" d="M17.9 20.86c0 .02.13.24.29.51.39.65.92 1.22 1.55 1.65l.44.31c.15.1.36.06.45-.09l.13-.21c.51-.81.83-1.72.94-2.66l.03-.25a.536.536 0 0 0-.11-.4l-.08-.11c-.34-.45-1.5-2.2-1.5-2.2l-2.14 3.45Z"/><path fill="#9B9B9B" d="m14.92 17.06 1.26.22c.88.16 1.78.15 2.66 0l1.13-.2c.1-.02.19.06.2.16.12.44.15.9.05 1.34a3.304 3.304 0 0 1-1.43 2.08l-3.25 2c-.16.1-.37.1-.52-.02l-.38-.29a5.8 5.8 0 0 1-1.67-1.98.454.454 0 0 1 .08-.53l.66-.65c.41-.41.72-.91.9-1.47l.19-.59c.02-.05.07-.08.12-.07Z"/><path fill="#573739" d="m13.38 9.75.31 3.5-1.79 1.69c-.12.11-.24.21-.37.3l-.04.03a3.097 3.097 0 0 1-1.58.54l-1.34.09c-.1.01-.2.05-.27.12l-.63.6c-.07.06-.16.1-.25.1-.24 0-.41-.22-.36-.46.04-.15-.08-.3-.24-.3h-.08c-.03 0-.06.01-.09.02l-1.08.49a.396.396 0 0 1-.56-.33c-.01-.14.05-.28.17-.37l.43-.29c.6-.41 1.26-.72 1.97-.91l2.34-.64c.36-.1.67-.31.89-.61l2.57-3.57Z"/><path fill="#8B62BF" d="M14.64 17.23c.06.01.14.03.22.04 1.64.31 3.46.31 5.1.01l.13-.02c.22-.04.35-.26.29-.47l-1.05-2.98-.82-2.14a.27.27 0 0 0-.33-.16l-.26.08-.12.03c-.65.09-1.19-.49-1.09-1.13.06-.4.17-.79.23-.92l.53-1.29a.118.118 0 0 0-.11-.16h-.91c-.04 0-.08.02-.11.06l-.4.89c-.22.49-.7.8-1.23.81-.35 0-.7-.13-.96-.37l-.18-.17c-.17.32-.27.66-.3 1.02-.06.97.03 2.52.44 4.39l.63 2.22c.05.13.16.23.3.26Z"/><path fill="#573739" d="M16.28 4.85h-1.44c-.57 0-1.1-.28-1.43-.75-.05-.08-.17-.06-.21.02l-.03.08c-.1.25-.3.45-.53.55-.02.01-.03.01-.05.02-.11.05-.35.22-.36.65l.06 1.43c.05 1.27 1.03 2.12 2.22 2.12 1.19 0 2.17-.85 2.22-2.12l.06-1.36c0-.6-.42-.64-.51-.64Z"/><path fill="#290118" d="M14.52 7.62c-.24 0-.46-.06-.64-.15-.06-.03-.13.04-.09.1.16.24.43.4.73.4s.58-.16.73-.4c.04-.06-.03-.13-.09-.1-.19.09-.41.15-.64.15Z"/><path fill="#3D2123" d="m14.35 6.15-.23.74c-.05.15.07.31.23.31h.34c.16 0 .27-.15.23-.31l-.23-.74c-.06-.16-.29-.16-.34 0Z"/><path fill="#000" d="M13.34 5.69c.25 0 .46.17.59.37-.122.04-.242.074-.36.109a8.271 8.271 0 0 0-.54.17l-.22-.2a.184.184 0 0 1 .02-.29c.14-.1.33-.16.51-.16ZM15.7 5.69c-.25 0-.46.17-.59.37.122.04.242.074.36.109.18.052.358.104.54.17l.22-.2c.09-.08.08-.22-.02-.29a.907.907 0 0 0-.51-.16Z"/><path fill="#fff" d="M12.81 6.21c.07-.28.31-.48.61-.48s.56.22.62.51c.02.06-.04.12-.1.12h-1.01a.12.12 0 0 1-.12-.15ZM16.24 6.21a.622.622 0 0 0-.61-.48c-.31 0-.57.22-.62.51-.02.06.04.12.1.12h1.01c.08 0 .14-.07.12-.15Z"/><path fill="#7D4533" d="M13.13 6.25c0-.22.18-.4.4-.4.22 0 .41.18.4.4 0 .04 0 .08-.01.11h-.78c0-.02-.003-.038-.005-.055a.374.374 0 0 1-.005-.055ZM15.93 6.25c0-.22-.18-.4-.4-.4-.22 0-.4.18-.4.4 0 .04 0 .08.01.11h.78c0-.02.003-.038.005-.055a.374.374 0 0 0 .005-.055Z"/><path fill="#000" d="M13.51 6.015c.13 0 .23.1.23.23 0 .03-.01.07-.02.11h-.41a.202.202 0 0 1-.03-.11c0-.13.1-.23.23-.23ZM15.53 6.015c-.13 0-.23.1-.23.23 0 .03.01.07.02.11h.41c.02-.03.03-.07.03-.11 0-.13-.1-.23-.23-.23Z"/><path fill="#fff" d="M13.44 6.1a.07.07 0 1 1-.14 0 .07.07 0 0 1 .14 0ZM15.47 6.1a.07.07 0 1 1-.14 0 .07.07 0 0 1 .14 0Z"/><path fill="#000" d="M12.8 5.4c.03.04.07.06.11.06.02 0 .05-.01.05-.02l.018-.008c.074-.035.366-.173.682-.112.06.01.13-.03.14-.1.01-.06-.03-.13-.1-.14-.431-.077-.808.122-.856.148l-.004.002c-.05.04-.07.11-.04.17ZM16.06 5.44c.02.01.04.02.06.02.04 0 .08-.03.1-.06.04-.06.02-.14-.04-.17l-.004-.002c-.048-.026-.424-.225-.856-.148-.07.01-.11.07-.1.14.01.07.08.11.14.1.37-.07.7.12.7.12Z"/><path fill="#D3D3D3" d="M13.357 3.98c.227.332.485.627.906.77H12.38c-.13 0-.24-.11-.24-.24v-.29c0-.13.11-.24.24-.24h.977Z"/></svg>
